!!!SOCIAL_FUNCTION:	social gatherings
!!!PDT:	1939
!!!OTL: No_94_Song_at_Parting.krn
!!!LANG: Non-Tone
!!!LING_GROUP: Wakashan
!!!REG: Pacific Northwest
**kern
*staff1
=1-
*clefF4
*k[b-]
*M2/4
[2d\
=2
8d\L]
16B-\Jk
16r
8.d\L
16c\Jk
=3
2c\
=4
4A\
8c\
8r
=5
8.d\L
16c\Jk
8.c\L
16c\Jk
=6
8.c\L
16A\Jk
8.A\L
16A\Jk
=7
4A\
8A\
8r
=8
8F\
8r
8.c\L
16c\Jk
=9
[2c\
=10
4c\]
12c\L
12A\
12A\J
=11
[2A\
=12
4A\]
4r
=13
4A\
8.c\L
16c\Jk
=14
8d\L
8c\J
12c\L
12A\
12A\J
=15
4A\
8A\
8r
=16
8F\L
8A\J
8.A\L
16A\Jk
=17
[2A\
=18
4A\]
8A\L
8A\J
=19
[2F\
=20
2F\_
=21
4F\]
4r
==
*-
